X: 29222
T: New Found Out, The
R: reel
M: 4/4
K: Dmajor
|:A2AB AF~F2|dFcF BGGB|A2FA dcdf|eB~B2 BcdB|
ADBD ADFG|AdcA G2GB|A2FA dcdf|1 edcB cAdB:|2 edcB cAde||
|:fd~d2 geag|f2df edcA|defa gfgb|
[1afdf efde|fd~d2 geag|fedf edcB|A2FA dcdf|edcB cAde:|
[2afdf efga|bf~f2 afef|defd BAFB|A2FA dcdf|eB~B2 BcdB||

